picto/bus-left-framed.svg

<svg class="color-immutable" width="30" height="30" viewBox="0 0 30 30" fill="none" xmlns="http://www.w3.org/2000/svg"><path d="M30 0H0V30.0001H30V0Z" fill="#2D327D"/><path d="M25.5 3C26.325 3 27 3.675 27 4.5V25.5C27 26.325 26.325 27 25.5 27H4.5C3.675 27 3 26.325 3 25.5V4.5C3 3.675 3.675 3 4.5 3H25.5ZM25.5 2.625H4.5C3.46613 2.625 2.625 3.46613 2.625 4.5V25.5C2.625 26.5339 3.46613 27.375 4.5 27.375H25.5C26.5339 27.375 27.375 26.5339 27.375 25.5V4.5C27.375 3.46613 26.5339 2.625 25.5 2.625Z" fill="white"/><path d="M20.6248 11.25H24.0001V10.5H8.92583C8.31503 10.5 7.78042 10.91 7.6221 11.5L6.0462 17.3693C6.01545 17.4834 6 17.6011 6 17.7193V21.5249C6 21.8562 6.26865 22.125 6.59993 22.125H13.5757C13.907 22.125 14.1757 21.8562 14.1757 21.5249C14.1757 21.5212 14.1757 21.5176 14.1757 21.5138C14.1752 21.4925 14.1749 21.4713 14.1749 21.4498C14.1749 19.5455 15.7205 17.9999 17.6251 17.9999C19.5293 17.9999 21.0749 19.5455 21.0749 21.4498C21.0749 21.4713 21.0747 21.4925 21.0744 21.5138C21.0742 21.5176 21.0742 21.5212 21.0742 21.5249C21.0742 21.8562 21.3431 22.125 21.6744 22.125H24.0001V16.4999H20.6248C20.4179 16.4999 20.2499 16.3319 20.2499 16.1248V11.6249C20.2499 11.4179 20.4178 11.25 20.6248 11.25ZM9.5625 17.625C9.5625 17.832 9.3945 17.9999 9.18735 17.9999H7.14225C6.93525 17.9999 6.76733 17.8319 6.76733 17.625C6.76733 17.5921 6.77168 17.5594 6.78023 17.5276L8.36633 11.6194C8.43668 11.3573 8.67435 11.1749 8.94592 11.1749H8.96243C9.29348 11.1749 9.56243 11.4437 9.56243 11.775V17.625H9.5625ZM11.5124 17.475C11.5124 17.8061 11.2435 18.075 10.9125 18.075C10.5812 18.075 10.3123 17.8061 10.3123 17.475V11.775C10.3123 11.4437 10.5812 11.1749 10.9125 11.1749C11.2435 11.1749 11.5124 11.4437 11.5124 11.775V17.475ZM13.4626 17.475C13.4626 17.8061 13.1936 18.075 12.8626 18.075C12.5314 18.075 12.2624 17.8061 12.2624 17.475V11.775C12.2624 11.4437 12.5314 11.1749 12.8626 11.1749C13.1936 11.1749 13.4626 11.4437 13.4626 11.775V17.475ZM19.4998 16.1248C19.4998 16.3319 19.3319 16.4999 19.1249 16.4999H14.5876C14.3807 16.4999 14.2124 16.3319 14.2124 16.1248V11.6249C14.2124 11.4179 14.3807 11.25 14.5876 11.25H19.1249C19.3319 11.25 19.4998 11.4179 19.4998 11.6249V16.1248Z" fill="white"/><path d="M17.6483 18.8471C16.1993 18.8471 15.0232 20.0231 15.0232 21.472C15.0232 22.921 16.1993 24.0971 17.6483 24.0971C19.0973 24.0971 20.2732 22.921 20.2732 21.472C20.2731 20.0232 19.0973 18.8471 17.6483 18.8471ZM17.6483 22.9158C16.8201 22.9158 16.148 22.2438 16.148 21.4158C16.148 20.5878 16.8201 19.9159 17.6483 19.9159C18.4761 19.9159 19.1482 20.5879 19.1482 21.4158C19.1482 22.2438 18.4761 22.9158 17.6483 22.9158Z" fill="white"/></svg>

<svg class="color-immutable" width="30" height="30" viewBox="0 0 30 30" fill="none" xmlns="http://www.w3.org/2000/svg"><g clip-path="url(#a)"><path d="M30 0H0v30h30V0Z" fill="#2D327D"/><path d="M25.5 3c.825 0 1.5.675 1.5 1.5v21c0 .825-.675 1.5-1.5 1.5h-21c-.825 0-1.5-.675-1.5-1.5v-21C3 3.675 3.675 3 4.5 3h21Zm0-.375h-21A1.877 1.877 0 0 0 2.625 4.5v21c0 1.034.841 1.875 1.875 1.875h21a1.877 1.877 0 0 0 1.875-1.875v-21A1.877 1.877 0 0 0 25.5 2.625Z" fill="#fff"/><path d="M20.625 11.25H24v-.75H8.926c-.611 0-1.146.41-1.304 1l-1.576 5.87c-.03.113-.046.231-.046.35v3.805a.6.6 0 0 0 .6.6h6.976a.6.6 0 0 0 .6-.6v-.011l-.001-.064a3.451 3.451 0 1 1 6.9.064v.01a.6.6 0 0 0 .6.601H24V16.5h-3.375a.375.375 0 0 1-.375-.375v-4.5c0-.207.168-.375.375-.375ZM9.562 17.625a.375.375 0 0 1-.375.375H7.142a.375.375 0 0 1-.362-.472l1.586-5.909a.6.6 0 0 1 .58-.444h.016a.6.6 0 0 1 .6.6v5.85Zm1.95-.15a.6.6 0 0 1-1.2 0v-5.7a.6.6 0 0 1 1.2 0v5.7Zm1.95 0a.6.6 0 0 1-1.2 0v-5.7a.6.6 0 0 1 1.2 0v5.7Zm6.038-1.35a.375.375 0 0 1-.375.375h-4.537a.375.375 0 0 1-.376-.375v-4.5c0-.207.169-.375.376-.375h4.537c.207 0 .375.168.375.375v4.5Z" fill="#fff"/><path d="M17.648 18.847a2.626 2.626 0 0 0 0 5.25 2.626 2.626 0 0 0 0-5.25Zm0 4.069a1.5 1.5 0 1 1 .001-3.002 1.5 1.5 0 0 1 0 3.002Z" fill="#fff"/></g><defs><clipPath id="a"><path fill="#fff" d="M0 0h30v30H0z"/></clipPath></defs></svg>
